X: 108201
T: LASSES LOOK BEFORE YOU
Q:"Strathspey."
R: Strathspey.
%R:strathspey
Z: 2017 by John Chambers <jc:trillian.mit.edu>
B: Kerr's Merrie Melodies v.1 p.8 s.2 #1
M: C
L: 1/16
K: G
uF2 |\
D3AF3A D3AF3A | (E=c3) uc3uG E4 uC3uE |\
D3AF3A D3AF3A | (Dd3) d3A (G3F) E2 :|\
uf2 |\
d3fA3f d3fA3f | =c3de3f g4 (agfe) |
d3fA3f d3fA3f | d3ef3g a4 (bagf) |\
d3fA3f d3fA3f | =c3de3f g4 (3(e2f2g2) |\
va3vf ug3ue f3d e3c | d3B A3G (G3F) E2 |]

%%sep 1 1 500
%%sep 1 1 500

